material/.icons/material/view-parallel.svg

<svg xmlns="http://www.w3.org/2000/svg" viewBox="0 0 24 24"><path d="M4 21V3h4v18H4m6 0V3h4v18h-4m6 0V3h4v18h-4z"/></svg>

<?xml version="1.0" encoding="UTF-8"?><!DOCTYPE svg PUBLIC "-//W3C//DTD SVG 1.1//EN" "http://www.w3.org/Graphics/SVG/1.1/DTD/svg11.dtd"><svg xmlns="http://www.w3.org/2000/svg" xmlns:xlink="http://www.w3.org/1999/xlink" version="1.1" id="mdi-view-parallel" width="24" height="24" viewBox="0 0 24 24"><path d="M4,21V3H8V21H4M10,21V3H14V21H10M16,21V3H20V21H16Z" /></svg>
